X: 813
T: Galop
C: Stanis?aw Moniuszko
L: 1/8
M: 2/4
N: Derived from pl-wtm--r-730-6-m_moniuszko-stanislaw--galop.krn
%%staves {1 2}
V: 1 clef=treble
V: 2 clef=bass
K: G
[V:1] [A^C]A/B/ [AD]A/B/ | 
[V:2] A,,2B,,2 & x2A,,2 | 
[V:1] [A^D]A/B/ [AE]A/B/ | 
[V:2] =C,2^C,2 & A,,2A,,2 | 
[V:1] [A^E]A/B/ [A=F]A/B/ | 
[V:2] D,2^D,2 & A,,2A,,2 | 
[V:1] Af/e/ f/e/^c/A/ & G zz2 ||  
[V:2] E, [G,E,C,A,,][G,E,C,A,,][G,E,C,A,,] & A,, xx2 ||  
[V:1] [af]>A[f2d2] | 
[V:2] D,, z[D2A,2F,2] | 
[V:1] [af]>A [fd] [a/A/][a/A/] | 
[V:2] D,, z[D2A,2F,2] | 
[V:1] [aA][bB][^c'^c][d'd] | 
[V:2] D,[DA,F,][DA,F,][DA,F,] | 
[V:1] [^d'2^d2][e'e] z | 
[V:2] A,,2[^CG,E,] z | 
[V:1]  [K:D] [fc]>A[e2c2] | 
[V:2]  [K:D] A,, z[C2G,2E,2] | 
[V:1] [fc]>A [ec] [a/A/][a/A/] | 
[V:2] A,, z[C2G,2E,2] | 
[V:1] [bB][c'c][d'd][e'e] | 
[V:2] A,,[CG,E,][CG,E,][CG,E,] | 
[V:1] [^e'2^e2][f'f] z | 
[V:2] D,2[DA,D,] z | 
[V:1] [fd]>A[a2f2] | 
[V:2] D,, z[D2A,2F,2D,2] | 
[V:1] [fd]>A [af]^g/a/ | 
[V:2] D,, z[D2A,2F,2D,2] | 
[V:1] [f'f][e'e][d'd][c'c] | 
[V:2] D,, [DA,F,D,][DA,F,D,][DA,F,D,] | 
[V:1] [c'2c2][bB] c/B/ | 
[V:2] G,,[DB,G,][DB,G,] z | 
[V:1] ^ABcd | 
[V:2] ^G,,[DB,^E,][DB,E,][DB,E,] | 
[V:1] Ad!accent!f2 | 
[V:2] A,,[DA,F,][DA,F,][DA,F,] | 
[V:1] f/e/^d/e/ fg | 
[V:2] A,,[CG,E,][CG,E,][CG,E,] | 
[V:1] baf [d'd] | 
[V:2] D,,[DF,D,] F,,[DA,F,] | 
[V:1] [^a^A][bB][c'c][d'd] | 
[V:2] ^G,,[DB,^E,][DB,E,][DB,E,] | 
[V:1] [aA][d'd][f'2-f2] | 
[V:2] A,,[DA,F,][DA,F,][DA,F,] | 
[V:1] f'/e'/^d'/e'/ a'g' | 
[V:2] [A,,A,,,][CG,E,][CG,E,][CG,E,] | 
[V:1] d'[f'a][d'2f2] ]|:  
[V:2] D,,[DD,][D2D,2] ]|:  
[V:1] cBAG | 
[V:2] E,[DB,]E,[DB,] | 
[V:1] !trill!FE[c'2-c2] | 
[V:2] E,,[DB,G,E,][DB,G,E,][DB,G,E,] | 
[V:1] c'/b/^a/b/ c'd' | 
[V:2] ^G,,[DB,E,][DB,E,][DB,E,] | 
[V:1] e'a' c''c''/d''/ | 
[V:2] A,,[CA,E,][CA,E,][CA,E,] | 
[V:1] c''b'a'g' | 
[V:2] E,[DB,G,]E,[DB,G,] | 
[V:1] f'e' z ^d'/e'/ | 
[V:2] E,,[DB,G,E,][DB,G,E,][DB,G,E,] | 
[V:1] g'f'd'b | 
[V:2] E,,[DB,G,E,][DB,G,E,][DB,G,E,] | 
[V:1] ac'/e'/a'2 :|]  
[V:2] A,,[CA,E,][A,2C,2A,,2] :|]  
[V:1]  [K:G] D/D/ | 
[V:2]  [K:G] z | 
[V:1] .D.G.D.B | 
[V:2] G,,[B,D,]G,,[B,D,] | 
[V:1] Ge d{/e}d/^c/ | 
[V:2] G,,[B,D,]G,,[B,D,] | 
[V:1] defg | 
[V:2] G,,[B,D,]G,,[B,D,] | 
[V:1] g2A e/^d/ | 
[V:2] C,[A,G,E,][A,G,E,][A,G,E,] | 
[V:1] fecA | 
[V:2] C,[A,G,E,][A,G,E,][A,G,E,] | 
[V:1] G2F F/G/ | 
[V:2] _E,[CA,]D,[CA,] | 
[V:1] BAdc | 
[V:2] F,,[CA,D,]F,,[CA,D,] | 
[V:1] ^A2B [d/D/][c/C/] | 
[V:2] G,,[B,G,D,][B,G,D,] z | 
[V:1] [dD][gG]d[bB] | 
[V:2] G,,[B,D,]G,,[B,D,] | 
[V:1] g[e'e][d'd] [b/g/][a/f/] | 
[V:2] G,,[B,D,]G,,[B,D,] | 
[V:1] [ge][fd][ec][^dB] | 
[V:2] B,,[B,G,D,][B,G,D,][B,G,D,] | 
[V:1] [f2=d2][ec]^d/e/ | 
[V:2] C,[A,G,E,][A,G,E,][A,G,E,] | 
[V:1] .a.g.f.e | 
[V:2] C,[CA,E,]A,,[CA,E,] | 
[V:1] dg/b/ d'c'/d'/ | 
[V:2] D,[B,G,]D,[B,G,] | 
[V:1] [f'f][e'e][c'c][aA] | 
[V:2] D,,[CA,D,][CA,D,][CA,D,] | 
[V:1] [gG][bd][g2B2] |]  
[V:2] [B,G,][G,G,,][G,2G,,2] |]  

